svgs/regular/sheep.svg

<svg xmlns="http://www.w3.org/2000/svg" viewBox="0 0 640 512"><!--! Font Awesome Pro 6.0.0-alpha3 by @fontawesome - https://fontawesome.com License - https://fontawesome.com/license (Commercial License) --><path d="M624.3 100.8l-53.11-53.11C561.2 37.63 547.6 32 533.4 32H464c0-17.67-14.33-32-32-32s-32 14.33-32 32v82.55c-20.48-17.5-49.92-25.42-77.47-17.61c-28.69-21.81-72.38-21.81-101.1 0C196.3 89.72 168.7 95.34 148.5 110.8C141.2 108.7 133.7 107.6 126.1 107.6c-45.11 0-81.86 35.09-82.36 78.41C17.48 199.5 0 226.3 0 256s17.48 56.5 43.77 69.97C44.23 366.1 76 398.9 116.6 403.5l37.38 93.46C157.6 506 166.4 512 176.2 512H200C213.3 512 224 501.3 224 488v-71.32C237.9 426.5 254.5 432 271.1 432S306.1 426.5 320 416.7V488c0 13.25 10.75 24 24 24h23.75c9.812 0 18.64-5.975 22.28-15.09l37.38-93.46c40.58-4.588 72.35-37.31 72.82-77.48C526.5 312.5 543.1 285.8 543.1 256c0-26.19-13.19-49.5-34.08-64h76.64c20.24 0 38.75-11.44 47.8-29.54C644.6 141.9 640.6 117 624.3 100.8zM469.1 286.5c-6.641 1.312-12.41 5.375-15.88 11.19c-3.484 5.812-4.359 12.81-2.391 19.28c.9844 3.25 1.438 5.844 1.438 8.125c-.0156 22.38-27.12 39.31-51.06 27.03c-9.953-5.156-22.06-2.75-29.3 5.75c-10.22 12.06-27.94 16.12-43.64 8.062c-9.906-5.156-22.06-2.719-29.3 5.75c-13.31 15.69-40.56 15.69-53.88 0c-4.688-5.5-11.42-8.438-18.3-8.438c-3.734 0-7.516 .875-11 2.688c-15.69 8.031-33.44 3.969-43.64-8.062c-7.25-8.5-19.44-10.91-29.3-5.75c-23.98 12.28-51.06-4.688-51.06-27.03c0-2.281 .4531-4.875 1.438-8.125C95.17 310.5 94.3 303.5 90.81 297.7C87.34 291.9 81.58 287.8 74.94 286.5C59.33 283.4 48 270.6 48 256s11.33-27.38 26.94-30.5c6.641-1.312 12.41-5.375 15.88-11.19C94.3 208.5 95.17 201.5 93.2 195C92.22 191.8 91.77 189.2 91.77 186.9c0-22.38 27.09-39.38 51.06-27.03c9.922 5.156 22.05 2.719 29.3-5.75c10.23-12.03 28-16.09 43.64-8.062c9.875 5.156 22.08 2.75 29.3-5.75c13.31-15.69 40.56-15.69 53.88 0c7.234 8.469 19.38 10.88 29.3 5.75c21.33-10.94 45.97 1.281 50.34 20.78C380 173.2 383.1 178.7 389.5 182.1c5.594 3.406 12.34 4.406 18.61 2.688c3.906-1.031 7-1.5 9.734-1.5c15.95 0 30.02 10.34 33.45 24.56c2.156 8.938 9.25 15.88 18.25 17.84C485.1 229 496 241.5 496 256C496 270.6 484.7 283.4 469.1 286.5zM512 112c-8.836 0-16-7.164-16-16s7.164-16 16-16s16 7.164 16 16S520.8 112 512 112z"/></svg>

<svg xmlns="http://www.w3.org/2000/svg" viewBox="0 0 640 512"><!-- Font Awesome Pro 6.0.0-alpha2 by @fontawesome - https://fontawesome.com License - https://fontawesome.com/license (Commercial License) --><path d="M624.344 100.76L571.238 47.654C561.215 37.631 547.621 32 533.445 32H464C464 14.326 449.674 0 432 0S400 14.326 400 32V114.549C379.518 97.053 350.082 89.133 322.531 96.938C293.844 75.125 250.156 75.125 221.469 96.938C196.25 89.719 168.734 95.344 148.531 110.75C141.203 108.656 133.719 107.625 126.125 107.625C81.016 107.625 44.266 142.719 43.766 186.031C17.484 199.5 0 226.25 0 256S17.484 312.5 43.766 325.969C44.229 366.145 76 398.865 116.582 403.453L153.965 496.914C157.609 506.025 166.436 512 176.248 512H200C213.254 512 224 501.254 224 488V416.68C237.887 426.461 254.531 432 272 432S306.113 426.461 320 416.68V488C320 501.254 330.746 512 344 512H367.752C377.564 512 386.391 506.025 390.035 496.914L427.418 403.453C468 398.865 499.771 366.145 500.234 325.969C526.516 312.5 544 285.75 544 256C544 229.809 530.811 206.496 509.916 192H586.553C606.797 192 625.303 180.562 634.355 162.455C644.645 141.879 640.611 117.027 624.344 100.76ZM469.062 286.5C462.422 287.812 456.656 291.875 453.187 297.688C449.703 303.5 448.828 310.5 450.797 316.969C451.781 320.219 452.234 322.813 452.234 325.094C452.219 347.469 425.109 364.406 401.172 352.125C391.219 346.969 379.109 349.375 371.875 357.875C361.656 369.938 343.938 374 328.234 365.938C318.328 360.781 306.172 363.219 298.938 371.688C285.625 387.375 258.375 387.375 245.063 371.688C240.375 366.188 233.641 363.25 226.766 363.25C223.031 363.25 219.25 364.125 215.766 365.938C200.078 373.969 182.328 369.906 172.125 357.875C164.875 349.375 152.688 346.969 142.828 352.125C118.844 364.406 91.766 347.438 91.766 325.094C91.766 322.812 92.219 320.219 93.203 316.969C95.172 310.5 94.297 303.5 90.812 297.688C87.344 291.875 81.578 287.812 74.938 286.5C59.328 283.375 48 270.562 48 256S59.328 228.625 74.938 225.5C81.578 224.188 87.344 220.125 90.813 214.312C94.297 208.5 95.172 201.5 93.203 195.031C92.219 191.781 91.766 189.188 91.766 186.906C91.766 164.531 118.859 147.531 142.828 159.875C152.75 165.031 164.875 162.594 172.125 154.125C182.359 142.094 200.125 138.031 215.766 146.062C225.641 151.219 237.844 148.812 245.062 140.312C258.375 124.625 285.625 124.625 298.937 140.312C306.172 148.781 318.312 151.188 328.234 146.062C349.562 135.125 374.203 147.344 378.578 166.844C380 173.188 383.953 178.719 389.531 182.094C395.125 185.5 401.875 186.5 408.141 184.781C412.047 183.75 415.141 183.281 417.875 183.281C433.828 183.281 447.891 193.625 451.328 207.844C453.484 216.781 460.578 223.719 469.578 225.688C485.125 229.031 496 241.531 496 256C496 270.562 484.672 283.375 469.062 286.5ZM512 112C503.164 112 496 104.836 496 96S503.164 80 512 80S528 87.164 528 96S520.836 112 512 112Z"/></svg>
